X: 36566
T: Shadow Dance
R: jig
M: 6/8
K: Amixolydian
e2A e2A|efd e2A|a2g fed|g2f e3:|
|:a2g fed|g2f ecA|efg efg|b2a e3:|

